evclide/img/Frame-gear.svg

<svg width="190" height="165" viewBox="0 0 190 165" fill="none" xmlns="http://www.w3.org/2000/svg">
<circle cx="64" cy="101" r="63.4677" fill="#FF9900" stroke="#FF9900" stroke-width="1.06452"/>
<path fill-rule="evenodd" clip-rule="evenodd" d="M121.677 50.0322C112.271 50.0322 104.645 57.6578 104.645 67.0645C104.645 76.4711 112.271 84.0968 121.677 84.0968C131.084 84.0968 138.71 76.4711 138.71 67.0645C138.71 57.6578 131.084 50.0322 121.677 50.0322ZM102.516 67.0645C102.516 56.482 111.095 47.9032 121.677 47.9032C132.26 47.9032 140.839 56.482 140.839 67.0645C140.839 77.647 132.26 86.2258 121.677 86.2258C111.095 86.2258 102.516 77.647 102.516 67.0645Z" fill="black"/>
<path fill-rule="evenodd" clip-rule="evenodd" d="M122.21 2.13463C119.285 2.13463 116.479 3.29661 114.411 5.36494C112.343 7.43327 111.181 10.2385 111.181 13.1636V14.1918L111.181 14.196C111.172 16.3504 110.534 18.4552 109.344 20.2514C108.155 22.0476 106.466 23.4568 104.486 24.3055C104.353 24.3624 104.21 24.3918 104.065 24.3918H103.801C101.837 25.2098 99.6774 25.4442 97.5813 25.0641C95.4094 24.6704 93.4054 23.635 91.8275 22.0915L91.8191 22.0833L91.4562 21.7204C90.432 20.6949 89.2152 19.881 87.8763 19.326C86.5374 18.771 85.1022 18.4853 83.6528 18.4853C82.2035 18.4853 80.7683 18.771 79.4294 19.326C78.0905 19.881 76.8742 20.6945 75.8499 21.72L75.849 21.7208C74.8236 22.7451 74.0101 23.9615 73.4551 25.3004C72.9001 26.6392 72.6144 28.0744 72.6144 29.5238C72.6144 30.9732 72.9001 32.4083 73.4551 33.7472C74.0101 35.0861 74.8236 36.3025 75.849 37.3268L76.2207 37.6984C77.7641 39.2763 78.7994 41.2804 79.1932 43.4522C79.585 45.6129 79.3239 47.8412 78.4435 49.8524C77.6761 51.9194 76.3077 53.7098 74.5139 54.9927C72.711 56.2823 70.5618 56.9995 68.3458 57.0514L68.3208 57.0517H67.7765C64.8514 57.0517 62.0462 58.2136 59.9779 60.282C57.9095 62.3503 56.7476 65.1556 56.7476 68.0806C56.7476 71.0057 57.9095 73.8109 59.9779 75.8793C62.0462 77.9476 64.8514 79.1096 67.7765 79.1096H68.8089C70.9633 79.1182 73.0681 79.7565 74.8643 80.9461C76.659 82.1346 78.0672 83.8215 78.9161 85.7994C79.8055 87.8173 80.0705 90.0553 79.6771 92.2252C79.2833 94.397 78.2479 96.4011 76.7045 97.979L76.6962 97.9874L76.3333 98.3502C75.3079 99.3745 74.494 100.591 73.9389 101.93C73.3839 103.269 73.0982 104.704 73.0982 106.154C73.0982 107.603 73.3839 109.038 73.9389 110.377C74.494 111.716 75.3074 112.932 76.3329 113.957L76.3337 113.957C77.358 114.983 78.5744 115.796 79.9133 116.351C81.2522 116.906 82.6873 117.192 84.1367 117.192C85.5861 117.192 87.0212 116.906 88.3601 116.351C89.699 115.796 90.9154 114.983 91.9397 113.957L92.3113 113.586C93.8892 112.042 95.8933 111.007 98.0651 110.613C100.226 110.221 102.454 110.483 104.465 111.363C106.532 112.13 108.323 113.499 109.606 115.293C110.895 117.096 111.612 119.245 111.664 121.461L111.665 121.486V122.03C111.665 124.955 112.827 127.76 114.895 129.829C116.963 131.897 119.768 133.059 122.694 133.059C125.619 133.059 128.424 131.897 130.492 129.829C132.561 127.76 133.722 124.955 133.722 122.03V121.002L133.722 120.998C133.731 118.843 134.369 116.738 135.559 114.942C136.747 113.148 138.434 111.739 140.412 110.891C142.43 110.001 144.668 109.736 146.838 110.129C149.01 110.523 151.014 111.559 152.592 113.102L152.6 113.11L152.963 113.473C153.987 114.499 155.204 115.312 156.543 115.868C157.882 116.423 159.317 116.708 160.767 116.708C162.216 116.708 163.651 116.423 164.99 115.868C166.329 115.312 167.545 114.499 168.57 113.474L168.57 113.473C169.596 112.448 170.409 111.232 170.964 109.893C171.519 108.554 171.805 107.119 171.805 105.67C171.805 104.22 171.519 102.785 170.964 101.446C170.409 100.107 169.596 98.8911 168.57 97.8668L168.199 97.4951C166.655 95.9173 165.62 93.9132 165.226 91.7414C164.833 89.5712 165.098 87.3331 165.987 85.315C166.836 83.3373 168.244 81.6506 170.039 80.4622C171.835 79.2727 173.94 78.6343 176.094 78.6257L176.099 78.6257L176.643 78.6257C179.568 78.6257 182.373 77.4637 184.442 75.3954C186.51 73.3271 187.672 70.5218 187.672 67.5968C187.672 64.6717 186.51 61.8665 184.442 59.7981C182.373 57.7298 179.568 56.5678 176.643 56.5678H175.615L175.61 56.5678C173.456 56.5592 171.351 55.9209 169.555 54.7313C167.759 53.5418 166.35 51.853 165.501 49.8728C165.444 49.74 165.415 49.5969 165.415 49.4524V49.1876C164.597 47.2242 164.362 45.0645 164.742 42.9683C165.136 40.7965 166.171 38.7925 167.715 37.2146L167.723 37.2062L168.086 36.8433C169.112 35.819 169.925 34.6022 170.48 33.2634C171.035 31.9245 171.321 30.4893 171.321 29.0399C171.321 27.5906 171.035 26.1554 170.48 24.8165C169.925 23.4776 169.112 22.2612 168.086 21.2369L168.086 21.2361C167.061 20.2107 165.845 19.3972 164.506 18.8422C163.167 18.2871 161.732 18.0015 160.283 18.0015C158.833 18.0015 157.398 18.2871 156.059 18.8422C154.72 19.3972 153.504 20.2107 152.48 21.2361L152.108 21.6077C150.53 23.1512 148.526 24.1865 146.354 24.5803C144.184 24.9737 141.946 24.7087 139.928 23.8194C137.951 22.9705 136.264 21.5622 135.075 19.7676C133.886 17.9714 133.247 15.8665 133.239 13.7122L133.239 13.7079V13.1636C133.239 10.2385 132.077 7.43327 130.008 5.36494C127.94 3.29661 125.135 2.13463 122.21 2.13463ZM112.902 3.85552C115.37 1.38687 118.718 0 122.21 0C125.701 0 129.049 1.38687 131.518 3.85552C133.986 6.32417 135.373 9.67238 135.373 13.1636L135.373 13.7037C135.373 13.7043 135.373 13.705 135.373 13.7056C135.381 15.443 135.896 17.1404 136.855 18.5889C137.815 20.038 139.177 21.1749 140.775 21.8596L140.785 21.8641C142.414 22.5831 144.221 22.7976 145.973 22.4799C147.724 22.1625 149.339 21.3287 150.611 20.0856C150.613 20.0843 150.614 20.083 150.615 20.0817L150.969 19.7275C150.97 19.7274 150.969 19.7277 150.969 19.7275C152.192 18.5038 153.644 17.5326 155.242 16.8703C156.84 16.2078 158.553 15.8668 160.283 15.8668C162.013 15.8668 163.726 16.2078 165.324 16.8703C166.921 17.5325 168.373 18.5032 169.595 19.7267C170.819 20.9492 171.79 22.401 172.452 23.9991C173.115 25.5971 173.456 27.31 173.456 29.0399C173.456 30.7698 173.115 32.4828 172.452 34.0808C171.79 35.6788 170.819 37.1306 169.595 38.3532L169.241 38.7073C169.24 38.7087 169.238 38.71 169.237 38.7114C167.994 39.9838 167.16 41.5989 166.843 43.3492C166.525 45.1013 166.739 46.9085 167.458 48.5376C167.518 48.6733 167.549 48.8201 167.549 48.9685V49.2268C168.241 50.7403 169.344 52.0312 170.734 52.9516C172.182 53.9109 173.88 54.4259 175.617 54.4332H176.643C180.134 54.4332 183.482 55.8201 185.951 58.2887C188.42 60.7574 189.806 64.1056 189.806 67.5968C189.806 71.088 188.42 74.4362 185.951 76.9048C183.482 79.3735 180.134 80.7604 176.643 80.7604L176.103 80.7603C176.102 80.7603 176.101 80.7604 176.101 80.7604C174.363 80.7677 172.666 81.2826 171.218 82.242C169.768 83.2016 168.632 84.5641 167.947 86.1616L167.942 86.1721C167.223 87.8012 167.009 89.6084 167.327 91.3605C167.644 93.1107 168.478 94.7258 169.72 95.9981C169.722 95.9995 169.723 96.001 169.725 96.0024L170.079 96.3565C170.079 96.3567 170.079 96.3564 170.079 96.3565C171.303 97.579 172.274 99.0311 172.936 100.629C173.599 102.227 173.94 103.94 173.94 105.67C173.94 107.4 173.599 109.113 172.936 110.711C172.274 112.308 171.303 113.76 170.079 114.983C168.857 116.206 167.405 117.177 165.807 117.839C164.209 118.502 162.496 118.843 160.767 118.843C159.037 118.843 157.324 118.502 155.726 117.839C154.128 117.177 152.676 116.206 151.454 114.983C151.454 114.982 151.454 114.983 151.454 114.983L151.099 114.628C151.098 114.627 151.096 114.625 151.095 114.624C149.823 113.381 148.207 112.547 146.457 112.23C144.705 111.912 142.898 112.127 141.269 112.846L141.258 112.85C139.661 113.535 138.298 114.672 137.339 116.121C136.379 117.569 135.864 119.267 135.857 121.004C135.857 121.005 135.857 121.005 135.857 121.006L135.857 122.03C135.857 125.521 134.47 128.869 132.002 131.338C129.533 133.807 126.185 135.194 122.694 135.194C119.202 135.194 115.854 133.807 113.385 131.338C110.917 128.869 109.53 125.521 109.53 122.03V121.498C109.486 119.715 108.907 117.986 107.869 116.534C106.829 115.08 105.375 113.972 103.697 113.355C103.686 113.35 103.674 113.346 103.663 113.342C103.653 113.338 103.644 113.334 103.634 113.329C102.005 112.61 100.198 112.396 98.4459 112.714C96.6957 113.031 95.0805 113.865 93.8082 115.108C93.8068 115.109 93.8054 115.11 93.804 115.112L93.4499 115.466C92.2274 116.69 90.7756 117.661 89.1776 118.323C87.5795 118.986 85.8666 119.327 84.1367 119.327C82.4068 119.327 80.6939 118.986 79.0958 118.323C77.4978 117.661 76.046 116.69 74.8235 115.466C73.6 114.244 72.6293 112.792 71.967 111.194C71.3046 109.596 70.9636 107.884 70.9636 106.154C70.9636 104.424 71.3046 102.711 71.967 101.113C72.6294 99.5149 73.6002 98.0632 74.8239 96.8408C74.824 96.8407 74.8237 96.8409 74.8239 96.8408L75.1785 96.4863C75.1798 96.4849 75.1812 96.4836 75.1825 96.4822C76.4255 95.2099 77.2593 93.5946 77.5767 91.8444C77.8944 90.0922 77.6799 88.2851 76.9609 86.656L76.9563 86.6455C76.2716 85.048 75.1348 83.6855 73.6857 82.7258C72.2371 81.7665 70.5398 81.2515 68.8024 81.2442C68.8017 81.2442 68.8011 81.2442 68.8004 81.2442L67.7765 81.2442C64.2853 81.2442 60.9371 79.8573 58.4684 77.3887C55.9998 74.92 54.6129 71.5718 54.6129 68.0806C54.6129 64.5894 55.9998 61.2412 58.4684 58.7726C60.9371 56.3039 64.2853 54.917 67.7765 54.917H68.308C70.0915 54.8729 71.8208 54.2945 73.2721 53.2565C74.7266 52.2162 75.8345 50.7623 76.4518 49.084C76.4596 49.0629 76.468 49.042 76.4771 49.0214C77.1961 47.3923 77.4105 45.5852 77.0928 43.833C76.7755 42.0828 75.9416 40.4675 74.6986 39.1952L74.3405 38.837C73.1165 37.6145 72.1456 36.1627 71.4832 34.5646C70.8207 32.9666 70.4797 31.2537 70.4797 29.5238C70.4797 27.7939 70.8207 26.0809 71.4832 24.4829C72.1456 22.8849 73.1165 21.4331 74.3405 20.2105C75.5628 18.987 77.0143 18.0164 78.612 17.3541C80.21 16.6917 81.9229 16.3507 83.6528 16.3507C85.3827 16.3507 87.0957 16.6917 88.6937 17.3541C90.2916 18.0165 91.7432 18.9873 92.9657 20.211C92.9658 20.2111 92.9655 20.2108 92.9657 20.211L93.3243 20.5697C94.5967 21.8126 96.2119 22.6464 97.9621 22.9638C99.7142 23.2815 101.521 23.067 103.15 22.348C103.286 22.2881 103.433 22.2571 103.581 22.2571H103.84C105.353 21.5652 106.644 20.4626 107.565 19.0728C108.524 17.6242 109.039 15.9269 109.046 14.1895V13.1636C109.046 9.67238 110.433 6.32417 112.902 3.85552Z" fill="black"/>
</svg>

<svg width="190" height="165" fill="none" xmlns="http://www.w3.org/2000/svg"><circle cx="64" cy="101" r="63.468" fill="#F90" stroke="#F90" stroke-width="1.065"/><path fill-rule="evenodd" clip-rule="evenodd" d="M121.677 50.032c-9.406 0-17.032 7.626-17.032 17.032 0 9.407 7.626 17.033 17.032 17.033 9.407 0 17.033-7.626 17.033-17.032 0-9.407-7.626-17.033-17.033-17.033zm-19.161 17.032c0-10.582 8.579-19.16 19.161-19.16 10.583 0 19.162 8.578 19.162 19.16 0 10.583-8.579 19.162-19.162 19.162-10.582 0-19.161-8.579-19.161-19.162z" fill="#000"/><path fill-rule="evenodd" clip-rule="evenodd" d="M122.21 2.135a11.03 11.03 0 00-11.029 11.029v1.032a11.047 11.047 0 01-6.695 10.11 1.07 1.07 0 01-.421.086h-.264a11.049 11.049 0 01-11.974-2.3l-.008-.009-.363-.363a11.03 11.03 0 00-15.606 0h-.001a11.03 11.03 0 000 15.607l.372.371a11.047 11.047 0 012.222 12.154 11.046 11.046 0 01-10.097 7.2h-.569a11.028 11.028 0 100 22.058h1.032a11.046 11.046 0 0110.107 6.69 11.046 11.046 0 01-2.212 12.179l-.008.008-.363.363a11.032 11.032 0 000 15.607 11.02 11.02 0 007.804 3.235 11.03 11.03 0 007.803-3.235l.371-.371a11.045 11.045 0 0112.154-2.223 11.045 11.045 0 017.199 10.098l.001.025v.544a11.032 11.032 0 0011.029 11.029 11.028 11.028 0 0011.028-11.029v-1.032a11.047 11.047 0 016.69-10.107 11.046 11.046 0 0112.18 2.211l.008.008.363.363a11.036 11.036 0 007.804 3.235 11.028 11.028 0 007.803-3.234v-.001a11.028 11.028 0 000-15.606l-.371-.372a11.044 11.044 0 01-2.212-12.18 11.045 11.045 0 0110.107-6.69h.549a11.031 11.031 0 0011.029-11.028 11.03 11.03 0 00-11.029-11.03h-1.033a11.045 11.045 0 01-10.109-6.694 1.066 1.066 0 01-.086-.42v-.265a11.048 11.048 0 012.3-11.973l.008-.009.363-.363a11.022 11.022 0 003.235-7.803 11.03 11.03 0 00-3.235-7.803 11.037 11.037 0 00-7.803-3.235 11.028 11.028 0 00-7.803 3.234l-.372.372a11.047 11.047 0 01-12.18 2.211 11.046 11.046 0 01-6.689-10.107v-.548a11.027 11.027 0 00-11.029-11.03zm-9.308 1.72a13.16 13.16 0 0118.616 0 13.166 13.166 0 013.855 9.309v.542a8.92 8.92 0 005.402 8.154l.01.004a8.91 8.91 0 009.826-1.778l.004-.004.354-.355c.001 0 0 0 0 0a13.172 13.172 0 019.314-3.86 13.163 13.163 0 019.312 3.86 13.153 13.153 0 013.861 9.313 13.154 13.154 0 01-3.861 9.313l-.354.354-.004.004a8.91 8.91 0 00-1.779 9.827c.06.135.091.282.091.43v.259a8.913 8.913 0 008.068 5.206h1.026a13.165 13.165 0 010 26.327h-.542a8.907 8.907 0 00-8.154 5.402l-.005.01a8.91 8.91 0 001.778 9.826l.005.004.354.355a13.156 13.156 0 013.861 9.313 13.154 13.154 0 01-3.861 9.313 13.16 13.16 0 01-14.353 2.856 13.16 13.16 0 01-4.272-2.856c0-.001 0 0 0 0l-.355-.355-.004-.004a8.91 8.91 0 00-9.826-1.778l-.011.004a8.913 8.913 0 00-5.401 8.154v1.026a13.167 13.167 0 01-13.163 13.164 13.164 13.164 0 01-13.164-13.164v-.532a8.914 8.914 0 00-5.833-8.143l-.034-.013a8.908 8.908 0 00-9.859 1.77l-.354.354a13.154 13.154 0 01-9.313 3.861 13.154 13.154 0 01-9.314-3.861 13.158 13.158 0 01-2.856-14.353 13.162 13.162 0 012.857-4.272l.355-.355.004-.004a8.912 8.912 0 001.778-9.826l-.005-.01a8.913 8.913 0 00-8.154-5.402h-1.025a13.164 13.164 0 010-26.327h.531a8.912 8.912 0 008.17-5.896 8.912 8.912 0 00-1.78-9.826l-.357-.358a13.16 13.16 0 01-2.858-14.354 13.162 13.162 0 012.858-4.273 13.162 13.162 0 0118.625.001l.358.359a8.913 8.913 0 009.826 1.778c.136-.06.283-.09.431-.09h.259a8.912 8.912 0 005.206-8.068v-1.026a13.16 13.16 0 013.856-9.308z" fill="#000"/></svg>
